X: 1
T: HUNT THE FOX -- JIG
B: Ryan's Mammoth Collection of Fiddle Tunes
R: jig
M: 9/8
L: 1/8
Z: Contributed 20010701012055 by John Chambers jmchambers:rcn.net
K: Dmix
  vd2B AFA AFA | d2B AGF E2d | d2B AFA AFA | d2B AFD E2D :|
|: fed faf g2e | fed faf e2g | fed faf g2e | d2B AFD E2D :|
